;START_OF_HEADER
;HEADER_VERSION:0.1
;FLAVOR:Griffin
;GENERATOR.NAME:Cura_SteamEngine
;GENERATOR.VERSION:5.4.0
;GENERATOR.BUILD_DATE:2023-07-04
;TARGET_MACHINE.NAME:Ultimaker 3
;EXTRUDER_TRAIN.0.INITIAL_TEMPERATURE:200
;EXTRUDER_TRAIN.0.MATERIAL.VOLUME_USED:28313
;EXTRUDER_TRAIN.0.MATERIAL.GUID:506c9f0d-e3aa-4bd4-b2d2-23e2425b1aa9
;EXTRUDER_TRAIN.0.NOZZLE.DIAMETER:0.4
;EXTRUDER_TRAIN.0.NOZZLE.NAME:AA 0.4
;BUILD_PLATE.INITIAL_TEMPERATURE:60
;PRINT.TIME:11433
;PRINT.GROUPS:1
;PRINT.SIZE.MIN.X:9
;PRINT.SIZE.MIN.Y:6
;PRINT.SIZE.MIN.Z:0.2
;PRINT.SIZE.MAX.X:175.98
;PRINT.SIZE.MAX.Y:151.06
;PRINT.SIZE.MAX.Z:20
;SLICE_UUID:40de044c-3579-4cf1-8e42-aef3b3da2050
;END_OF_HEADER
;Generated with Cura_SteamEngine 5.4.0
T0
M82 ;absolute extrusion mode

G92 E0
M109 S200
G0 F15000 X9 Y6 Z2
G280
G1 F1500 E-6.5
;LAYER_COUNT:90
;LAYER:0
M106 S255
M204 S1000
M205 X20 Y20
G1 F600 Z2.2
G0 F15000 X60.303 Y72.005 Z2.2
;TYPE:SKIRT
G1 F600 Z0.2
G1 F1500 E0
G1 F1800 X63.075 Y71.1 E0.03657
G1 X115.216 Y71.1 E0.69044
G1 X116.617 Y71.575 E0.70899
G1 X118.075 Y71.1 E0.72822
G1 X170.216 Y71.1 E1.38208
G1 X172.71 Y71.948 E1.41512
G1 X175.075 Y74.383 E1.45769
G1 X175.98 Y77.155 E1.49425
G1 X175.98 Y144.951 E2.34444
G1 X175.606 Y146.669 E2.36649
G1 X174.624 Y148.279 E2.39014
G1 X172.68 Y150.165 E2.4241
G1 X169.919 Y151.06 E2.4605
G1 X118.134 Y151.06 E3.10991
G1 X116.665 Y150.742 E3.12875
G1 X116.339 Y150.598 E3.13322
G1 X114.922 Y151.06 E3.15191
G1 X63.129 Y151.06 E3.80142
G1 X61.411 Y150.686 E3.82347
G1 X59.801 Y149.704 E3.84712
G1 X57.915 Y147.76 E3.88108
G1 X57.02 Y144.999 E3.91748
G1 X57.02 Y116.164 E4.27908
G1 X57.868 Y113.67 E4.31211
G1 X60.303 Y111.305 E4.35468
G1 X60.938 Y111.098 E4.36306
G1 X59.801 Y110.404 E4.37976
G1 X57.915 Y108.46 E4.41373
G1 X57.02 Y105.699 E4.45013
G1 X57.02 Y76.864 E4.81173
G1 X57.868 Y74.37 E4.84476
G1 X60.303 Y72.005 E4.88733
G0 F15000 X60.516 Y72.356
G1 F1800 X63.138 Y71.5 E4.92192
G1 X115.149 Y71.5 E5.57416
G1 X116.614 Y71.997 E5.59356
G1 X118.138 Y71.5 E5.61366
G1 X170.149 Y71.5 E6.2659
G1 X172.49 Y72.296 E6.2969
G1 X174.724 Y74.596 E6.33711
G1 X175.58 Y77.218 E6.3717
G1 X175.58 Y144.907 E7.22055
G1 X175.229 Y146.52 E7.24125
G1 X174.311 Y148.025 E7.26335
G1 X172.468 Y149.813 E7.29556
G1 X169.855 Y150.66 E7.33
G1 X118.177 Y150.66 E7.97806
G1 X116.75 Y150.351 E7.99637
G1 X116.366 Y150.169 E8.0017
G1 X114.859 Y150.66 E8.02158
G1 X63.173 Y150.66 E8.66974
G1 X61.56 Y150.309 E8.69044
G1 X60.055 Y149.391 E8.71255
G1 X58.267 Y147.548 E8.74475
G1 X57.42 Y144.935 E8.7792
G1 X57.42 Y116.231 E9.13915
G1 X58.216 Y113.89 E9.17016
G1 X60.516 Y111.656 E9.21037
G1 X62.123 Y111.131 E9.23157
G1 X61.56 Y111.009 E9.2388
G1 X60.055 Y110.091 E9.2609
G1 X58.267 Y108.248 E9.2931
G1 X57.42 Y105.635 E9.32755
G1 X57.42 Y76.931 E9.68751
G1 X58.216 Y74.59 E9.71852
G1 X60.516 Y72.356 E9.75873
G0 F15000 X60.729 Y72.707
G1 F1800 X63.201 Y71.9 E9.79134
G1 X115.082 Y71.9 E10.44194
G1 X116.611 Y72.419 E10.46219
G1 X118.201 Y71.9 E10.48317
G1 X170.082 Y71.9 E11.13377
G1 X172.27 Y72.644 E11.16275
G1 X174.373 Y74.809 E11.2006
G1 X175.18 Y77.281 E11.23321
G1 X175.18 Y144.863 E12.08072
G1 X174.852 Y146.371 E12.10007
G1 X173.998 Y147.771 E12.12064
G1 X172.256 Y149.461 E12.15107
G1 X169.791 Y150.26 E12.18357
G1 X118.22 Y150.26 E12.83029
G1 X116.835 Y149.96 E12.84806
G1 X116.401 Y149.737 E12.85418
G1 X114.796 Y150.26 E12.87535
G1 X63.217 Y150.26 E13.52217
G1 X61.709 Y149.932 E13.54152
G1 X60.309 Y149.078 E13.56208
G1 X58.619 Y147.336 E13.59252
G1 X57.82 Y144.871 E13.62502
G1 X57.82 Y116.298 E13.98333
G1 X58.564 Y114.11 E14.01231
G1 X60.729 Y112.007 E14.05016
G1 X63.079 Y111.24 E14.08116
G1 X63.324 Y111.215 E14.08425
G1 X63.324 Y110.983 E14.08716
G1 X61.709 Y110.632 E14.10789
G1 X60.309 Y109.778 E14.12845
G1 X58.619 Y108.036 E14.15889
G1 X57.82 Y105.571 E14.19138
G1 X57.82 Y76.998 E14.5497
G1 X58.564 Y74.81 E14.57868
G1 X60.729 Y72.707 E14.61653
G0 F15000 X60.942 Y73.058
G1 F1800 X63.264 Y72.3 E14.64716
G1 X115.015 Y72.3 E15.29614
G1 X116.607 Y72.841 E15.31722
G1 X118.264 Y72.3 E15.33908
G1 X170.015 Y72.3 E15.98806
G1 X172.05 Y72.992 E16.01501
G1 X174.022 Y75.022 E16.0505
G1 X174.78 Y77.344 E16.08114
G1 X174.78 Y144.819 E16.9273
G1 X174.475 Y146.222 E16.9453
G1 X173.685 Y147.517 E16.96432
G1 X172.044 Y149.109 E16.993
G1 X169.727 Y149.86 E17.02354
G1 X118.263 Y149.86 E17.66892
G1 X116.92 Y149.569 E17.68615
G1 X116.443 Y149.303 E17.693
G1 X114.733 Y149.86 E17.71555
G1 X63.261 Y149.86 E18.36103
G1 X61.858 Y149.555 E18.37904
G1 X60.563 Y148.765 E18.39806
G1 X58.971 Y147.124 E18.42673
G1 X58.22 Y144.807 E18.45727
G1 X58.22 Y116.365 E18.81395
G1 X58.912 Y114.33 E18.8409
G1 X60.942 Y112.358 E18.87639
G1 X63.203 Y111.62 E18.90622
G1 X63.724 Y111.6 E18.91276
G1 X63.724 Y110.56 E18.9258
G1 X63.22 Y110.551 E18.93212
G1 X61.858 Y110.255 E18.9496
G1 X60.563 Y109.465 E18.96862
G1 X58.971 Y107.824 E18.99729
G1 X58.22 Y105.507 E19.02784
G1 X58.22 Y77.065 E19.38451
G1 X58.912 Y75.03 E19.41147
G1 X60.942 Y73.058 E19.44696
G0 F15000 X61.155 Y73.409
G1 F1800 X63.327 Y72.7 E19.47561
G1 X114.948 Y72.7 E20.12296
G1 X116.603 Y73.263 E20.14488
G1 X118.327 Y72.7 E20.16762
G1 X169.948 Y72.7 E20.81497
G1 X171.83 Y73.34 E20.8399
G1 X173.671 Y75.235 E20.87303
G1 X174.38 Y77.407 E20.90168
G1 X174.38 Y144.775 E21.7465
G1 X174.098 Y146.073 E21.76316
G1 X173.372 Y147.263 E21.78064
G1 X171.832 Y148.757 E21.80755
G1 X169.663 Y149.46 E21.83614
G1 X118.306 Y149.46 E22.48017
G1 X117.005 Y149.178 E22.49687
G1 X116.494 Y148.866 E22.50438
G1 X114.67 Y149.46 E22.52843
G1 X63.305 Y149.46 E23.17257
G1 X62.007 Y149.178 E23.18923
G1 X60.817 Y148.452 E23.20671
G1 X59.323 Y146.912 E23.23361
G1 X58.62 Y144.743 E23.26221
G1 X58.62 Y116.432 E23.61724
G1 X59.26 Y114.55 E23.64217
G1 X61.155 Y112.709 E23.6753
G1 X63.327 Y112 E23.70395
G1 X64.124 Y112 E23.71394
G1 X64.124 Y110.16 E23.73702
G1 X63.305 Y110.16 E23.74729
G1 X62.007 Y109.878 E23.76395
G1 X60.817 Y109.152 E23.78143
G1 X59.323 Y107.612 E23.80833
G1 X58.62 Y105.443 E23.83693
G1 X58.62 Y77.132 E24.19196
G1 X59.26 Y75.25 E24.21689
G1 X61.155 Y73.409 E24.25002
G0 F15000 X61.368 Y73.76
G1 F1800 X63.39 Y73.1 E24.27669
G1 X114.881 Y73.1 E24.92241
G1 X116.337 Y73.595 E24.94169
G1 X116.52 Y73.711 E24.94441
G1 X118.39 Y73.1 E24.96908
G1 X169.881 Y73.1 E25.6148
G1 X171.61 Y73.688 E25.6377
G1 X173.32 Y75.448 E25.66847
G1 X173.98 Y77.47 E25.69514
G1 X173.98 Y144.731 E26.53862
G1 X173.721 Y145.924 E26.55393
G1 X173.059 Y147.009 E26.56987
G1 X171.62 Y148.405 E26.59501
G1 X169.599 Y149.06 E26.62165
G1 X118.349 Y149.06 E27.26435
G1 X117.154 Y148.801 E27.27968
G1 X116.508 Y148.407 E27.28917
G1 X116.352 Y148.494 E27.29141
G1 X114.605 Y149.06 E27.31444
G1 X63.349 Y149.06 E27.95721
G1 X62.156 Y148.801 E27.97252
G1 X61.071 Y148.139 E27.98846
G1 X59.675 Y146.7 E28.0136
G1 X59.02 Y144.679 E28.04024
G1 X59.02 Y116.499 E28.39363
G1 X59.608 Y114.77 E28.41653
G1 X61.368 Y113.06 E28.4473
G1 X63.39 Y112.4 E28.47398
G1 X64.524 Y112.4 E28.4882
G1 X64.524 Y109.76 E28.5213
G1 X63.349 Y109.76 E28.53604
G1 X62.156 Y109.501 E28.55135
G1 X61.071 Y108.839 E28.56729
G1 X59.675 Y107.4 E28.59243
G1 X59.02 Y105.379 E28.61907
G1 X59.02 Y77.199 E28.97246
G1 X59.608 Y75.47 E28.99536
G1 X61.368 Y73.76 E29.02613
G0 F15000 X61.581 Y74.111
G1 F1800 X63.453 Y73.5 E29.05083
G1 X114.814 Y73.5 E29.69491
G1 X116.208 Y73.974 E29.71338
G1 X116.522 Y74.211 E29.71831
G1 X116.759 Y74.053 E29.72188
G1 X118.453 Y73.5 E29.74423
G1 X169.814 Y73.5 E30.38832
G1 X171.39 Y74.036 E30.40919
G1 X172.969 Y75.661 E30.43761
G1 X173.58 Y77.533 E30.4623
G1 X173.58 Y144.687 E31.30444
G1 X173.344 Y145.775 E31.3184
G1 X172.746 Y146.755 E31.33279
G1 X171.408 Y148.053 E31.35617
G1 X169.535 Y148.66 E31.38086
G1 X118.393 Y148.66 E32.0222
G1 X117.305 Y148.424 E32.03616
G1 X116.495 Y147.93 E32.04806
G1 X116.229 Y148.113 E32.05211
G1 X114.541 Y148.66 E32.07436
G1 X63.393 Y148.66 E32.71578
G1 X62.305 Y148.424 E32.72974
G1 X61.325 Y147.826 E32.74413
G1 X60.027 Y146.488 E32.76751
G1 X59.42 Y144.615 E32.7922
G1 X59.42 Y116.566 E33.14395
G1 X59.956 Y114.99 E33.16482
G1 X61.581 Y113.411 E33.19324
G1 X63.453 Y112.8 E33.21793
G1 X64.924 Y112.8 E33.23638
G1 X64.924 Y109.36 E33.27952
G1 X63.393 Y109.36 E33.29872
G1 X62.305 Y109.124 E33.31268
G1 X61.325 Y108.526 E33.32707
G1 X60.027 Y107.188 E33.35045
G1 X59.42 Y105.315 E33.37514
G1 X59.42 Y77.266 E33.72689
G1 X59.956 Y75.69 E33.74776
G1 X61.581 Y74.111 E33.77618
G0 F15000 X61.794 Y74.462
G1 F1800 X63.516 Y73.9 E33.79889
G1 X114.747 Y73.9 E34.44135
G1 X116.079 Y74.353 E34.45899
G1 X116.512 Y74.736 E34.46624
G1 X116.883 Y74.433 E34.47225
G1 X118.516 Y73.9 E34.49379
G1 X169.747 Y73.9 E35.13624
G1 X171.17 Y74.384 E35.15509
G1 X172.618 Y75.874 E35.18115
G1 X173.18 Y77.596 E35.20386
G1 X173.18 Y144.643 E36.04466
G1 X172.967 Y145.624 E36.05725
G1 X172.431 Y146.503 E36.07016
G1 X171.195 Y147.702 E36.09175
G1 X169.474 Y148.26 E36.11444
G1 X118.437 Y148.26 E36.75446
G1 X117.456 Y148.047 E36.76705
G1 X116.659 Y147.561 E36.77876
G1 X116.493 Y147.413 E36.78155
G1 X116.106 Y147.732 E36.78784
G1 X114.477 Y148.26 E36.80931
G1 X63.437 Y148.26 E37.44937
G1 X62.456 Y148.047 E37.46196
G1 X61.577 Y147.511 E37.47487
G1 X60.378 Y146.275 E37.49647
G1 X59.82 Y144.554 E37.51915
G1 X59.82 Y116.633 E37.86929
G1 X60.304 Y115.21 E37.88814
G1 X61.794 Y113.762 E37.9142
G1 X63.516 Y113.2 E37.93691
G1 X65.324 Y113.2 E37.95959
G1 X65.324 Y108.96 E38.01276
G1 X63.437 Y108.96 E38.03642
G1 X62.456 Y108.747 E38.04901
G1 X61.577 Y108.211 E38.06192
G1 X60.378 Y106.975 E38.08351
G1 X59.82 Y105.254 E38.1062
G1 X59.82 Y77.333 E38.45634
G1 X60.304 Y75.91 E38.47519
G1 X61.794 Y74.462 E38.50125
G0 F15000 X62.007 Y74.813
G1 F1800 X63.579 Y74.3 E38.52198
G1 X114.68 Y74.3 E39.16281
G1 X115.95 Y74.732 E39.17963
G1 X116.504 Y75.302 E39.1896
G1 X117.007 Y74.813 E39.1984
G1 X118.579 Y74.3 E39.21913
G1 X169.68 Y74.3 E39.85996
G1 X170.95 Y74.732 E39.87678
G1 X172.267 Y76.087 E39.90048
G1 X172.78 Y77.659 E39.92121
G1 X172.78 Y144.599 E40.76067
G1 X172.59 Y145.473 E40.77188
G1 X172.116 Y146.251 E40.78331
G1 X170.982 Y147.351 E40.80312
G1 X169.413 Y147.86 E40.8238
G1 X118.481 Y147.86 E41.46251
G1 X117.607 Y147.67 E41.47373
G1 X116.867 Y147.219 E41.48459
G1 X116.496 Y146.854 E41.49112
G1 X115.983 Y147.351 E41.50008
G1 X114.413 Y147.86 E41.52077
G1 X63.481 Y147.86 E42.15948
G1 X62.607 Y147.67 E42.1707
G1 X61.829 Y147.196 E42.18212
G1 X60.729 Y146.062 E42.20193
G1 X60.22 Y144.493 E42.22262
G1 X60.22 Y116.7 E42.57115
G1 X60.652 Y115.43 E42.58798
G1 X62.007 Y114.113 E42.61167
G1 X63.579 Y113.6 E42.63241
G1 X65.724 Y113.6 E42.65931
G1 X65.724 Y108.56 E42.72251
G1 X63.481 Y108.56 E42.75064
G1 X62.607 Y108.37 E42.76186
G1 X61.829 Y107.896 E42.77328
G1 X60.729 Y106.762 E42.79309
G1 X60.22 Y105.193 E42.81378
G1 X60.22 Y77.4 E43.16231
G1 X60.652 Y76.13 E43.17913
G1 X62.007 Y74.813 E43.20283
G0 F15000 X62.22 Y75.164
G1 F1800 X61 Y76.35 E43.22417
G1 X60.62 Y77.467 E43.23896
G1 X60.62 Y105.132 E43.58589
G1 X61.08 Y106.55 E43.60459
G1 X62.078 Y107.579 E43.62256
G1 X62.758 Y107.993 E43.63255
G1 X63.525 Y108.16 E43.64239
G1 X66.124 Y108.16 E43.67498
G1 X66.124 Y114 E43.74822
G1 X63.642 Y114 E43.77934
G1 X62.22 Y114.464 E43.7981
G1 X61 Y115.65 E43.81944
G1 X60.62 Y116.767 E43.83424
G1 X60.62 Y144.432 E44.18116
G1 X61.08 Y145.85 E44.19986
G1 X62.078 Y146.879 E44.21784
G1 X62.758 Y147.293 E44.22782
G1 X63.525 Y147.46 E44.23766
G1 X114.352 Y147.46 E44.87505
G1 X115.77 Y147 E44.89375
G1 X116.504 Y146.288 E44.90657
G1 X117.075 Y146.877 E44.91686
G1 X117.758 Y147.293 E44.92689
G1 X118.525 Y147.46 E44.93673
G1 X169.352 Y147.46 E45.57412
G1 X170.77 Y147 E45.59281
G1 X171.799 Y146.002 E45.61079
G1 X172.213 Y145.322 E45.62077
G1 X172.38 Y144.555 E45.63062
G1 X172.38 Y77.722 E46.46873
G1 X171.916 Y76.3 E46.48749
G1 X170.73 Y75.08 E46.50882
G1 X169.613 Y74.7 E46.52362
G1 X118.642 Y74.7 E47.16281
G1 X117.22 Y75.164 E47.18157
G1 X116.496 Y75.868 E47.19424
G1 X115.73 Y75.08 E47.20802
G1 X114.613 Y74.7 E47.22281
G1 X63.642 Y74.7 E47.86201
G1 X62.22 Y75.164 E47.88077
G0 F15000 X62.433 Y75.515
G1 F1800 X63.705 Y75.1 E47.89755
G1 X114.546 Y75.1 E48.53511
G1 X115.51 Y75.428 E48.54788
G1 X116.488 Y76.434 E48.56547
G1 X117.433 Y75.515 E48.582
G1 X118.705 Y75.1 E48.59878
G1 X169.546 Y75.1 E49.23635
G1 X170.51 Y75.428 E49.24912
G1 X171.565 Y76.513 E49.2681
G1 X171.98 Y77.785 E49.28488
G1 X171.98 Y144.511 E50.12164
G1 X171.836 Y145.171 E50.13012
G1 X171.482 Y145.753 E50.13866
G1 X170.558 Y146.649 E50.1548
G1 X169.291 Y147.06 E50.1715
G1 X118.569 Y147.06 E50.80757
G1 X117.909 Y146.916 E50.81605
G1 X117.327 Y146.562 E50.82459
G1 X116.513 Y145.723 E50.83925
G1 X115.558 Y146.649 E50.85593
G1 X114.291 Y147.06 E50.87263
G1 X63.569 Y147.06 E51.50871
G1 X62.909 Y146.916 E51.51718
G1 X62.327 Y146.562 E51.52572
G1 X61.431 Y145.638 E51.54186
G1 X61.02 Y144.371 E51.55856
G1 X61.02 Y116.834 E51.90389
G1 X61.348 Y115.87 E51.91666
G1 X62.433 Y114.815 E51.93564
G1 X63.705 Y114.4 E51.95241
G1 X66.524 Y114.4 E51.98777
G1 X66.524 Y107.76 E52.07103
G1 X63.569 Y107.76 E52.10809
G1 X62.909 Y107.616 E52.11656
G1 X62.327 Y107.262 E52.1251
G1 X61.431 Y106.338 E52.14125
G1 X61.02 Y105.071 E52.15795
G1 X61.02 Y77.534 E52.50327
G1 X61.348 Y76.57 E52.51604
G1 X62.433 Y75.515 E52.53502
G0 F15000 X62.646 Y75.866
G1 F1800 X63.768 Y75.5 E52.54982
G1 X114.479 Y75.5 E53.18576
G1 X115.29 Y75.776 E53.1965
G1 X116.214 Y76.726 E53.21312
G1 X116.46 Y77.482 E53.22309
G1 X116.696 Y76.79 E53.23226
G1 X117.646 Y75.866 E53.24888
G1 X118.768 Y75.5 E53.26368
G1 X169.479 Y75.5 E53.89961
G1 X170.29 Y75.776 E53.91035
G1 X171.214 Y76.726 E53.92697
G1 X171.58 Y77.848 E53.94177
G1 X171.58 Y144.467 E54.7772
G1 X171.459 Y145.02 E54.7843
G1 X171.165 Y145.504 E54.7914
G1 X170.346 Y146.298 E54.8057
G1 X169.23 Y146.66 E54.82042
G1 X118.613 Y146.66 E55.45517
G1 X118.06 Y146.539 E55.46227
G1 X117.576 Y146.245 E55.46937
G1 X116.782 Y145.426 E55.48368
G1 X116.54 Y144.681 E55.4935
G1 X116.408 Y145.14 E55.49949
G1 X116.165 Y145.504 E55.50498
G1 X115.346 Y146.298 E55.51928
G1 X114.23 Y146.66 E55.534
G1 X63.613 Y146.66 E56.16875
G1 X63.06 Y146.539 E56.17585
G1 X62.576 Y146.245 E56.18295
G1 X61.782 Y145.426 E56.19726
G1 X61.42 Y144.31 E56.21197
G1 X61.42 Y116.901 E56.55569
G1 X61.696 Y116.09 E56.56643
G1 X62.646 Y115.166 E56.58305
G1 X63.768 Y114.8 E56.59785
G1 X66.924 Y114.8 E56.63743
G1 X66.924 Y107.299 E56.7315
G1 X66.673 Y107.36 E56.73473
G1 X63.613 Y107.36 E56.77311
G1 X63.06 Y107.239 E56.78021
G1 X62.576 Y106.945 E56.78731
G1 X61.782 Y106.126 E56.80161
G1 X61.42 Y105.01 E56.81633
G1 X61.42 Y77.601 E57.16005
G1 X61.696 Y76.79 E57.17079
G1 X62.646 Y75.866 E57.18741
G0 F15000 X62.859 Y76.217
G1 F1800 X62.044 Y77.01 E57.20167
G1 X61.82 Y77.668 E57.21038
G1 X61.82 Y104.948 E57.55249
G1 X62.134 Y105.915 E57.56524
G1 X62.863 Y106.667 E57.57837
G1 X63.153 Y106.85 E57.58267
G1 X63.613 Y106.96 E57.5886
G1 X66.673 Y106.96 E57.62697
G1 X67.324 Y106.748 E57.63556
G1 X67.324 Y115.339 E57.74329
G1 X66.849 Y115.2 E57.7495
G1 X63.831 Y115.2 E57.78735
G1 X62.859 Y115.517 E57.80017
G1 X62.044 Y116.31 E57.81443
G1 X61.82 Y116.968 E57.82315
G1 X61.82 Y144.248 E58.16525
G1 X62.134 Y145.215 E58.178
G1 X62.863 Y145.967 E58.19113
G1 X63.153 Y146.15 E58.19543
G1 X63.613 Y146.26 E58.20136
G1 X114.168 Y146.26 E58.83534
G1 X115.135 Y145.946 E58.84809
G1 X115.887 Y145.217 E58.86122
G1 X116.07 Y144.927 E58.86553
G1 X116.18 Y144.467 E58.87146
G1 X116.18 Y117.211 E59.21326
G1 X115.863 Y116.239 E59.22608
G1 X115.07 Y115.424 E59.24034
G1 X114.412 Y115.2 E59.24905
G1 X111.327 Y115.2 E59.28774
G1 X110.676 Y115.412 E59.29633
G1 X110.676 Y106.86 E59.40357
G1 X111.109 Y106.96 E59.40915
G1 X114.168 Y106.96 E59.44751
G1 X115.135 Y106.646 E59.46026
G1 X115.887 Y105.917 E59.47339
G1 X116.07 Y105.627 E59.47769
G1 X116.18 Y105.167 E59.48362
G1 X116.18 Y77.911 E59.82542
G1 X115.863 Y76.939 E59.83824
G1 X115.07 Y76.124 E59.8525
G1 X114.412 Y75.9 E59.86122
G1 X63.831 Y75.9 E60.49552
G1 X62.859 Y76.217 E60.50835
G0 F15000 X63.072 Y76.568
G1 F1800 X63.894 Y76.3 E60.51919
G1 X114.345 Y76.3 E61.15186
G1 X114.85 Y76.472 E61.15855
G1 X115.512 Y77.152 E61.17045
