;START_OF_HEADER
;HEADER_VERSION:0.1
;FLAVOR:Griffin
;GENERATOR.NAME:Cura_SteamEngine
;GENERATOR.VERSION:5.4.0
;GENERATOR.BUILD_DATE:2023-07-04
;TARGET_MACHINE.NAME:Ultimaker 2+ Connect
;EXTRUDER_TRAIN.0.INITIAL_TEMPERATURE:210
;EXTRUDER_TRAIN.0.MATERIAL.VOLUME_USED:25810
;EXTRUDER_TRAIN.0.MATERIAL.GUID:506c9f0d-e3aa-4bd4-b2d2-23e2425b1aa9
;EXTRUDER_TRAIN.0.NOZZLE.DIAMETER:0.4
;EXTRUDER_TRAIN.0.NOZZLE.NAME:unknown
;BUILD_PLATE.INITIAL_TEMPERATURE:60
;PRINT.TIME:9472
;PRINT.GROUPS:1
;PRINT.SIZE.MIN.X:0
;PRINT.SIZE.MIN.Y:0
;PRINT.SIZE.MIN.Z:0
;PRINT.SIZE.MAX.X:182.052
;PRINT.SIZE.MAX.Y:152.526
;PRINT.SIZE.MAX.Z:15.07
;SLICE_UUID:dc851b85-adcd-4daa-bbaa-6d05395d953d
;END_OF_HEADER
;Generated with Cura_SteamEngine 5.4.0
T0
M82 ;absolute extrusion mode

G92 E0
M109 S210
G0 F9000 X0.00 Y0.00 Z0.00
G280
G1 F2700 E-6.5
;LAYER_COUNT:75
;LAYER:0
M107
G0 F9000 X47.29 Y69.335 Z0.27
;TYPE:SKIRT
G1 F2700 E0
G1 F1777.8 X50.625 Y67.687 E0.06298
G1 X54.202 Y67.13 E0.12426
G1 X105.198 Y65.538 E0.98802
G1 X108.017 Y66.007 E1.0364
G1 X110.804 Y67.162 E1.08748
G1 X111.985 Y66.372 E1.11153
G1 X115.552 Y65.218 E1.175
G1 X167.767 Y63.6 E2.0594
G1 X169.212 Y63.672 E2.08389
G1 X172.359 Y64.496 E2.13896
G1 X174.64 Y65.77 E2.18319
G1 X177.056 Y67.798 E2.2366
G1 X179.03 Y70.766 E2.29694
G1 X180.177 Y74.287 E2.35963
G1 X182.052 Y136.992 E3.42167
G1 X181.737 Y139.567 E3.46559
G1 X180.326 Y142.888 E3.52668
G1 X178.019 Y145.716 E3.58846
G1 X175.361 Y147.507 E3.64272
G1 X172.82 Y148.526 E3.68907
G1 X169.936 Y148.954 E3.73843
G1 X118.709 Y150.473 E4.60606
G1 X116.134 Y150.158 E4.64998
G1 X113.203 Y148.912 E4.7039
G1 X111.976 Y149.728 E4.72884
G1 X108.453 Y150.878 E4.79158
G1 X55.564 Y152.526 E5.6874
G1 X52.828 Y151.986 E5.73462
G1 X49.967 Y150.802 E5.78703
G1 X47.02 Y148.419 E5.8512
G1 X45.218 Y145.742 E5.90583
G1 X44.329 Y143.47 E5.94713
G1 X43.795 Y141.161 E5.98725
G1 X42.996 Y115.535 E6.4213
G1 X42.326 Y114.221 E6.44627
G1 X41.897 Y112.407 E6.47783
G1 X41.736 Y107.306 E6.56423
G1 X42.143 Y105.553 E6.59469
G1 X42.655 Y104.598 E6.61304
G1 X41.864 Y78.971 E7.0471
G1 X42.404 Y76.333 E7.09268
G1 X43.144 Y74.303 E7.12926
G1 X44.647 Y71.833 E7.17821
G1 X47.29 Y69.335 E7.23978
G0 F9000 X47.522 Y69.667
G1 F1777.8 X50.749 Y68.072 E7.30072
G1 X54.214 Y67.53 E7.36009
G1 X105.17 Y65.939 E8.22317
G1 X107.906 Y66.395 E8.27013
G1 X110.497 Y67.468 E8.31761
G1 X110.789 Y67.656 E8.32349
G1 X112.108 Y66.753 E8.35055
G1 X115.622 Y65.616 E8.41308
G1 X167.747 Y64 E9.29595
G1 X169.153 Y64.07 E9.31978
G1 X172.209 Y64.87 E9.37326
G1 X174.413 Y66.101 E9.416
G1 X176.753 Y68.066 E9.46773
G1 X178.667 Y70.944 E9.52625
G1 X179.779 Y74.355 E9.58698
G1 X181.655 Y136.943 E10.64704
G1 X181.347 Y139.464 E10.69004
G1 X179.981 Y142.678 E10.74916
G1 X177.746 Y145.418 E10.80902
G1 X175.172 Y147.152 E10.86156
G1 X172.717 Y148.137 E10.90635
G1 X169.924 Y148.554 E10.95416
G1 X118.758 Y150.076 E11.82075
G1 X116.237 Y149.768 E11.86375
G1 X113.16 Y148.46 E11.92035
G1 X111.798 Y149.366 E11.94805
G1 X108.385 Y150.48 E12.00883
G1 X55.594 Y152.125 E12.90299
G1 X52.949 Y151.603 E12.94863
G1 X50.171 Y150.453 E12.99953
G1 X47.319 Y148.147 E13.06162
G1 X45.574 Y145.554 E13.11453
G1 X44.719 Y143.38 E13.15408
G1 X44.194 Y141.109 E13.19354
G1 X43.393 Y115.431 E13.62847
G1 X42.715 Y114.129 E13.65332
G1 X42.296 Y112.357 E13.68415
G1 X42.138 Y107.346 E13.76902
G1 X42.533 Y105.643 E13.79862
G1 X43.058 Y104.696 E13.81695
G1 X42.265 Y79.005 E14.25209
G1 X42.78 Y76.47 E14.29589
G1 X43.506 Y74.478 E14.33178
G1 X44.961 Y72.087 E14.37916
G1 X47.522 Y69.667 E14.43882
G0 F9000 X47.754 Y69.999
G1 F1777.8 X50.873 Y68.457 E14.49772
G1 X54.226 Y67.93 E14.55518
G1 X105.142 Y66.34 E15.41758
G1 X107.795 Y66.783 E15.46312
G1 X110.344 Y67.838 E15.50982
G1 X110.791 Y68.139 E15.51895
G1 X112.285 Y67.117 E15.54959
G1 X115.692 Y66.014 E15.61022
G1 X167.727 Y64.4 E16.49157
G1 X169.094 Y64.468 E16.51474
G1 X172.059 Y65.244 E16.56663
G1 X174.186 Y66.432 E16.60787
G1 X176.452 Y68.335 E16.65797
G1 X178.304 Y71.12 E16.71459
G1 X179.381 Y74.423 E16.7734
G1 X181.258 Y136.895 E17.8315
G1 X180.957 Y139.36 E17.87354
G1 X179.636 Y142.468 E17.93071
G1 X177.474 Y145.118 E17.98861
G1 X174.981 Y146.798 E18.03951
G1 X172.614 Y147.748 E18.08269
G1 X169.912 Y148.154 E18.12894
G1 X118.806 Y149.679 E18.99453
G1 X116.341 Y149.378 E19.03657
G1 X113.499 Y148.17 E19.08885
G1 X113.189 Y147.961 E19.09518
G1 X111.622 Y149.003 E19.12704
G1 X108.317 Y150.082 E19.1859
G1 X55.624 Y151.724 E20.07839
G1 X53.07 Y151.22 E20.12247
G1 X50.375 Y150.104 E20.17185
G1 X47.618 Y147.875 E20.23187
G1 X45.93 Y145.367 E20.28305
G1 X45.109 Y143.29 E20.32086
G1 X44.593 Y141.057 E20.35966
G1 X43.79 Y115.326 E20.79548
G1 X43.104 Y114.037 E20.8202
G1 X42.695 Y112.307 E20.8503
G1 X42.54 Y107.386 E20.93365
G1 X42.923 Y105.733 E20.96238
G1 X43.461 Y104.797 E20.98065
G1 X42.666 Y79.038 E21.41695
G1 X43.156 Y76.607 E21.45893
G1 X43.868 Y74.653 E21.49414
G1 X45.275 Y72.341 E21.53996
G1 X47.754 Y69.999 E21.59769
G0 F9000 X47.986 Y70.331
G1 F1777.8 X50.997 Y68.842 E21.65456
G1 X54.238 Y68.33 E21.71011
G1 X105.113 Y66.741 E22.57182
G1 X107.684 Y67.171 E22.61595
G1 X110.191 Y68.208 E22.66188
G1 X110.789 Y68.624 E22.67421
G1 X112.462 Y67.481 E22.70851
G1 X115.762 Y66.412 E22.76724
G1 X167.707 Y64.8 E23.64707
G1 X169.035 Y64.866 E23.66958
G1 X171.909 Y65.618 E23.71987
G1 X173.959 Y66.763 E23.75962
G1 X176.151 Y68.604 E23.80808
G1 X177.941 Y71.296 E23.86281
G1 X178.983 Y74.491 E23.91971
G1 X180.861 Y136.847 E24.97584
G1 X180.567 Y139.256 E25.01693
G1 X179.291 Y142.258 E25.07215
G1 X177.201 Y144.82 E25.12812
G1 X174.792 Y146.443 E25.1773
G1 X172.511 Y147.358 E25.21891
G1 X169.852 Y147.758 E25.26443
G1 X118.854 Y149.282 E26.12818
G1 X116.445 Y148.988 E26.16927
G1 X113.655 Y147.802 E26.22059
G1 X113.198 Y147.475 E26.23011
G1 X111.446 Y148.64 E26.26573
G1 X108.249 Y149.684 E26.32266
G1 X55.654 Y151.323 E27.2135
G1 X53.191 Y150.837 E27.256
G1 X50.581 Y149.756 E27.30383
G1 X47.916 Y147.601 E27.36185
G1 X46.287 Y145.181 E27.41124
G1 X45.499 Y143.2 E27.44733
G1 X44.992 Y141.005 E27.48547
G1 X44.187 Y115.22 E27.92221
G1 X43.493 Y113.945 E27.94679
G1 X43.094 Y112.257 E27.97615
G1 X42.942 Y107.426 E28.05798
G1 X43.299 Y105.882 E28.08481
G1 X43.865 Y104.899 E28.10401
G1 X43.067 Y79.07 E28.54149
G1 X43.532 Y76.744 E28.58165
G1 X44.23 Y74.828 E28.61617
G1 X45.589 Y72.595 E28.66042
G1 X47.986 Y70.331 E28.71624
G0 F9000 X48.218 Y70.663
G1 F1777.8 X51.121 Y69.227 E28.77107
G1 X54.25 Y68.73 E28.82471
G1 X105.084 Y67.142 E29.68572
G1 X107.573 Y67.559 E29.72845
G1 X110.038 Y68.578 E29.77361
G1 X110.784 Y69.112 E29.78914
G1 X112.639 Y67.845 E29.82717
G1 X115.832 Y66.81 E29.88399
G1 X167.687 Y65.2 E30.76229
G1 X168.976 Y65.264 E30.78414
G1 X171.759 Y65.992 E30.83284
G1 X173.732 Y67.094 E30.8711
G1 X175.85 Y68.873 E30.91793
G1 X177.578 Y71.472 E30.97077
G1 X178.585 Y74.559 E31.02574
G1 X180.464 Y136.799 E32.07991
G1 X180.177 Y139.152 E32.12004
G1 X178.946 Y142.048 E32.17331
G1 X176.928 Y144.522 E32.22736
G1 X174.603 Y146.088 E32.27482
G1 X172.408 Y146.968 E32.31486
G1 X169.792 Y147.362 E32.35964
G1 X118.902 Y148.885 E33.22157
G1 X116.549 Y148.598 E33.2617
G1 X113.811 Y147.434 E33.31207
G1 X113.211 Y146.985 E33.32476
G1 X111.268 Y148.278 E33.36427
G1 X108.181 Y149.286 E33.41925
G1 X55.684 Y150.922 E34.30843
G1 X53.312 Y150.454 E34.34936
G1 X50.787 Y149.408 E34.39563
G1 X48.214 Y147.327 E34.45165
G1 X46.642 Y144.993 E34.49929
G1 X45.889 Y143.11 E34.53362
G1 X45.391 Y140.953 E34.5711
G1 X44.584 Y115.111 E35.00881
G1 X43.882 Y113.853 E35.03319
G1 X43.493 Y112.207 E35.06183
G1 X43.344 Y107.463 E35.14218
G1 X43.646 Y106.082 E35.16611
G1 X44.269 Y105.001 E35.18724
G1 X43.468 Y79.101 E35.62592
G1 X43.908 Y76.881 E35.66423
G1 X44.592 Y75.003 E35.69807
G1 X45.903 Y72.849 E35.74076
G1 X48.218 Y70.663 E35.79466
G0 F9000 X48.45 Y70.995
G1 F1777.8 X51.245 Y69.612 E35.84746
G1 X54.262 Y69.13 E35.89918
G1 X105.06 Y67.543 E36.75959
G1 X107.458 Y67.945 E36.80075
G1 X109.885 Y68.948 E36.84521
G1 X110.776 Y69.602 E36.86392
G1 X112.819 Y68.207 E36.9058
G1 X115.899 Y67.208 E36.96062
G1 X167.667 Y65.6 E37.83745
G1 X168.917 Y65.662 E37.85863
G1 X171.609 Y66.366 E37.90574
G1 X173.505 Y67.425 E37.94251
G1 X175.549 Y69.142 E37.9877
G1 X177.215 Y71.648 E38.03864
G1 X178.187 Y74.627 E38.09169
G1 X180.067 Y136.751 E39.1439
G1 X179.787 Y139.048 E39.18308
G1 X178.601 Y141.838 E39.2344
G1 X176.656 Y144.222 E39.28649
G1 X174.412 Y145.734 E39.3323
G1 X172.305 Y146.578 E39.37072
G1 X169.732 Y146.966 E39.41478
G1 X118.95 Y148.488 E40.27488
G1 X116.654 Y148.208 E40.31404
G1 X113.968 Y147.066 E40.36345
G1 X113.229 Y146.493 E40.37928
G1 X111.09 Y147.916 E40.42277
G1 X108.113 Y148.888 E40.47579
G1 X55.715 Y150.521 E41.36329
G1 X53.432 Y150.07 E41.40269
G1 X50.993 Y149.06 E41.44738
G1 X48.512 Y147.053 E41.5014
G1 X46.997 Y144.804 E41.54731
G1 X46.279 Y143.02 E41.57987
G1 X45.79 Y140.901 E41.61669
G1 X44.981 Y114.999 E42.05541
G1 X44.271 Y113.761 E42.07957
G1 X43.892 Y112.157 E42.10747
G1 X43.746 Y107.5 E42.18635
G1 X44.037 Y106.167 E42.20945
G1 X44.673 Y105.106 E42.23039
G1 X43.869 Y79.135 E42.67028
G1 X44.284 Y77.018 E42.7068
G1 X44.954 Y75.178 E42.73995
G1 X46.217 Y73.103 E42.78107
G1 X48.45 Y70.995 E42.83306
G0 F9000 X48.684 Y71.325
G1 F1777.8 X51.365 Y69.998 E42.88371
G1 X54.274 Y69.53 E42.93359
G1 X105.036 Y67.944 E43.79338
G1 X107.343 Y68.331 E43.83298
G1 X109.732 Y69.318 E43.87674
G1 X110.765 Y70.094 E43.89862
G1 X112.999 Y68.569 E43.94441
G1 X115.966 Y67.606 E43.99722
G1 X167.647 Y66 E44.87257
G1 X168.858 Y66.06 E44.8931
G1 X171.459 Y66.74 E44.93861
G1 X173.278 Y67.756 E44.97389
G1 X175.248 Y69.411 E45.01745
G1 X176.852 Y71.824 E45.0665
G1 X177.789 Y74.695 E45.11763
G1 X179.67 Y136.703 E46.16787
G1 X179.397 Y138.943 E46.20608
G1 X178.255 Y141.629 E46.25549
G1 X176.383 Y143.924 E46.30563
G1 X174.223 Y145.379 E46.34972
G1 X172.198 Y146.19 E46.38665
G1 X169.72 Y146.566 E46.42908
G1 X118.998 Y148.091 E47.28817
G1 X116.759 Y147.818 E47.32635
G1 X114.125 Y146.698 E47.37481
G1 X113.251 Y145.999 E47.39375
G1 X110.914 Y147.553 E47.44127
G1 X108.045 Y148.49 E47.49236
G1 X55.746 Y150.12 E48.37819
G1 X53.552 Y149.686 E48.41605
G1 X51.199 Y148.712 E48.45916
G1 X48.81 Y146.779 E48.51119
G1 X47.353 Y144.616 E48.55534
G1 X46.669 Y142.93 E48.58614
G1 X46.189 Y140.849 E48.6223
G1 X45.378 Y114.884 E49.06209
G1 X44.66 Y113.669 E49.08598
G1 X44.291 Y112.107 E49.11315
G1 X44.148 Y107.537 E49.19056
G1 X44.428 Y106.252 E49.21282
G1 X45.077 Y105.214 E49.23355
G1 X44.27 Y79.168 E49.6747
G1 X44.66 Y77.155 E49.70942
G1 X45.316 Y75.353 E49.74188
G1 X46.531 Y73.357 E49.78144
G1 X48.684 Y71.325 E49.83156
G0 F9000 X48.918 Y71.655
G1 F1777.8 X51.486 Y70.384 E49.88007
G1 X54.286 Y69.93 E49.92809
G1 X105.012 Y68.345 E50.78728
G1 X107.228 Y68.717 E50.82532
G1 X109.579 Y69.688 E50.86838
G1 X110.797 Y70.622 E50.89436
G1 X110.994 Y70.421 E50.89913
G1 X113.177 Y68.931 E50.94387
G1 X116.033 Y68.004 E50.99471
G1 X167.627 Y66.4 E51.86859
G1 X168.799 Y66.458 E51.88846
G1 X171.309 Y67.114 E51.93238
G1 X173.051 Y68.087 E51.96616
G1 X174.947 Y69.68 E52.00808
G1 X176.489 Y72 E52.05524
G1 X177.391 Y74.763 E52.10445
G1 X179.273 Y136.655 E53.15273
G1 X179.007 Y138.838 E53.18996
G1 X177.909 Y141.42 E53.23746
G1 X176.111 Y143.624 E53.28562
G1 X174.032 Y145.025 E53.32806
G1 X172.091 Y145.802 E53.36345
G1 X169.708 Y146.166 E53.40427
G1 X119.046 Y147.694 E54.26234
G1 X116.864 Y147.428 E54.29955
G1 X114.334 Y146.352 E54.3461
G1 X113.209 Y145.454 E54.37046
G1 X112.952 Y145.718 E54.3767
G1 X110.738 Y147.19 E54.42171
G1 X107.977 Y148.092 E54.47089
G1 X55.777 Y149.719 E55.35503
G1 X53.672 Y149.302 E55.39136
G1 X51.405 Y148.364 E55.4329
G1 X49.108 Y146.505 E55.48293
G1 X47.709 Y144.428 E55.52532
G1 X47.04 Y142.78 E55.55543
G1 X46.588 Y140.798 E55.58985
G1 X45.775 Y114.767 E56.03075
G1 X45.049 Y113.577 E56.05435
G1 X44.69 Y112.057 E56.08079
G1 X44.548 Y107.524 E56.15757
G1 X44.818 Y106.341 E56.17812
G1 X45.481 Y105.328 E56.19861
G1 X44.671 Y79.2 E56.64116
G1 X45.036 Y77.292 E56.67405
G1 X45.678 Y75.528 E56.70583
G1 X46.845 Y73.611 E56.74382
G1 X48.918 Y71.655 E56.79207
G0 F9000 X49.15 Y71.986
G1 F1777.8 X51.606 Y70.77 E56.83847
G1 X54.298 Y70.33 E56.88465
G1 X104.988 Y68.746 E57.74322
G1 X107.113 Y69.103 E57.7797
G1 X109.426 Y70.058 E57.82207
G1 X110.846 Y71.167 E57.85257
G1 X111.219 Y70.751 E57.86203
G1 X113.354 Y69.294 E57.90579
G1 X116.101 Y68.402 E57.95468
G1 X167.607 Y66.8 E58.82707
G1 X168.74 Y66.856 E58.84628
G1 X171.159 Y67.488 E58.88861
G1 X172.824 Y68.418 E58.92089
G1 X174.644 Y69.948 E58.96115
G1 X176.127 Y72.178 E59.00648
G1 X176.993 Y74.831 E59.05373
G1 X178.876 Y136.607 E60.10005
G1 X178.617 Y138.733 E60.13631
G1 X177.563 Y141.211 E60.1819
G1 X175.838 Y143.326 E60.22811
G1 X173.843 Y144.67 E60.26883
G1 X171.985 Y145.414 E60.30271
G1 X169.696 Y145.766 E60.34192
G1 X119.094 Y147.297 E61.19898
G1 X116.969 Y147.038 E61.23522
G1 X114.491 Y145.984 E61.28081
G1 X113.168 Y144.904 E61.30972
G1 X112.731 Y145.385 E61.32072
G1 X110.562 Y146.827 E61.36482
G1 X107.909 Y147.694 E61.41207
G1 X55.808 Y149.318 E62.29454
G1 X53.792 Y148.918 E62.32934
G1 X51.611 Y148.016 E62.36929
G1 X49.406 Y146.231 E62.41732
G1 X48.064 Y144.239 E62.45798
G1 X47.43 Y142.691 E62.4863
G1 X46.987 Y140.748 E62.52004
G1 X46.172 Y114.647 E62.96213
G1 X45.438 Y113.483 E62.98543
G1 X45.09 Y112.044 E63.01049
G1 X44.948 Y107.511 E63.08727
G1 X45.153 Y106.56 E63.10374
G1 X45.885 Y105.442 E63.12637
G1 X45.072 Y79.231 E63.57032
G1 X45.412 Y77.429 E63.60136
G1 X46.04 Y75.703 E63.63246
G1 X47.16 Y73.863 E63.66893
G1 X49.15 Y71.986 E63.71524
G0 F9000 X49.382 Y72.317
G1 F1777.8 X51.727 Y71.156 E63.75954
G1 X54.31 Y70.73 E63.80386
G1 X104.964 Y69.147 E64.66182
G1 X106.998 Y69.489 E64.69674
G1 X109.222 Y70.407 E64.73747
G1 X110.561 Y71.448 E64.76618
G1 X110.862 Y71.766 E64.7736
G1 X111.444 Y71.081 E64.78881
G1 X113.531 Y69.657 E64.83159
G1 X116.169 Y68.8 E64.87855
G1 X167.587 Y67.2 E65.74945
G1 X168.681 Y67.254 E65.76799
G1 X171.009 Y67.862 E65.80872
G1 X172.597 Y68.749 E65.83952
G1 X174.343 Y70.217 E65.87814
G1 X175.764 Y72.354 E65.92158
G1 X176.595 Y74.899 E65.96691
G1 X178.479 Y136.559 E67.01127
G1 X178.227 Y138.628 E67.04655
G1 X177.217 Y141.002 E67.09023
G1 X175.565 Y143.028 E67.13449
G1 X173.654 Y144.315 E67.17349
G1 X171.878 Y145.026 E67.20588
G1 X169.684 Y145.366 E67.24347
G1 X119.142 Y146.9 E68.09951
G1 X117.074 Y146.648 E68.13478
G1 X114.7 Y145.638 E68.17846
G1 X113.119 Y144.348 E68.213
G1 X112.51 Y145.052 E68.22876
G1 X110.386 Y146.464 E68.27194
G1 X107.841 Y147.296 E68.31727
G1 X55.839 Y148.917 E69.19806
G1 X53.912 Y148.534 E69.23132
G1 X51.817 Y147.668 E69.2697
G1 X49.704 Y145.957 E69.31573
G1 X48.42 Y144.051 E69.35464
G1 X47.82 Y142.602 E69.38119
G1 X47.386 Y140.698 E69.41425
G1 X46.568 Y114.522 E69.85761
G1 X45.826 Y113.387 E69.88057
G1 X45.49 Y112.031 E69.90422
G1 X45.348 Y107.498 E69.981
G1 X45.543 Y106.65 E69.99573
G1 X46.289 Y105.56 E70.01809
G1 X45.473 Y79.26 E70.46355
G1 X45.788 Y77.566 E70.49272
G1 X46.402 Y75.878 E70.52313
G1 X47.475 Y74.115 E70.55807
G1 X49.382 Y72.317 E70.60244
G0 F9000 X49.611 Y72.65
G1 F1777.8 X51.85 Y71.542 E70.64473
G1 X54.322 Y71.13 E70.68716
G1 X104.94 Y69.548 E71.54452
G1 X106.883 Y69.875 E71.57787
G1 X109.019 Y70.756 E71.61699
G1 X110.315 Y71.764 E71.64479
G1 X110.882 Y72.375 E71.6589
G1 X111.669 Y71.411 E71.67997
G1 X113.708 Y70.02 E71.72175
G1 X116.237 Y69.198 E71.76677
G1 X167.567 Y67.6 E72.63618
G1 X168.623 Y67.652 E72.65408
G1 X170.859 Y68.236 E72.69321
G1 X172.37 Y69.08 E72.72251
G1 X174.042 Y70.486 E72.75949
G1 X175.401 Y72.53 E72.80105
G1 X176.197 Y74.967 E72.84445
G1 X178.082 Y136.511 E73.88685
G1 X177.837 Y138.523 E73.92116
G1 X176.871 Y140.793 E73.96293
G1 X175.293 Y142.728 E74.0052
G1 X173.463 Y143.961 E74.04255
G1 X171.772 Y144.638 E74.07339
G1 X169.672 Y144.966 E74.10937
G1 X119.19 Y146.503 E74.9644
G1 X117.179 Y146.258 E74.9987
G1 X114.909 Y145.292 E75.04047
G1 X113.064 Y143.787 E75.08077
G1 X112.289 Y144.719 E75.1013
G1 X110.21 Y146.101 E75.14356
G1 X107.773 Y146.898 E75.18697
G1 X55.87 Y148.516 E76.06608
G1 X54.032 Y148.15 E76.09781
